dist/svgs/unicons/line/document-layout-center.svg

<svg xmlns="http://www.w3.org/2000/svg" viewBox="0 0 24 24"><path d="M9 12h6a1 1 0 001-1V5a1 1 0 00-1-1H9a1 1 0 00-1 1v6a1 1 0 001 1zm1-6h4v4h-4zm11 4h-2a1 1 0 000 2h2a1 1 0 000-2zm-2-2h2a1 1 0 000-2h-2a1 1 0 000 2zM3 8h2a1 1 0 000-2H3a1 1 0 000 2zm0 4h2a1 1 0 000-2H3a1 1 0 000 2zm18 2H3a1 1 0 000 2h18a1 1 0 000-2zm-8 4H3a1 1 0 000 2h10a1 1 0 000-2z"/></svg>

<svg xmlns="http://www.w3.org/2000/svg" viewBox="0 0 24 24"><path d="M9,12h6a1,1,0,0,0,1-1V5a1,1,0,0,0-1-1H9A1,1,0,0,0,8,5v6A1,1,0,0,0,9,12Zm1-6h4v4H10Zm11,4H19a1,1,0,0,0,0,2h2a1,1,0,0,0,0-2ZM19,8h2a1,1,0,0,0,0-2H19a1,1,0,0,0,0,2ZM3,8H5A1,1,0,0,0,5,6H3A1,1,0,0,0,3,8Zm0,4H5a1,1,0,0,0,0-2H3a1,1,0,0,0,0,2Zm18,2H3a1,1,0,0,0,0,2H21a1,1,0,0,0,0-2Zm-8,4H3a1,1,0,0,0,0,2H13a1,1,0,0,0,0-2Z"/></svg>
